X:30
T:The Castle of Dromore
C:Traditional
R:Lullaby
M:6/8
L:1/8
Q:1/4=60
K:D
F/G/ | A2 A A2 A | B2 A ABc | d2 G F2 G | (A3 A2) B/c/ |
d2 D D2 D | E2 D DEF | G2 B A2 G | (F3 F2) B/c/ |
ded cdc | BcB A2 G | F2 A GFE | D3 F2 A |
GAG E2 G | F2 D F2 A | GAG E2 c | (D3 D2) ||

%
